X:68
T:Dr. Gilbert's
R:Reel
B:Irish Fiddle Book
S:Irish Fiddle Book
Z:Transcription, chords:Mike Long
M:C|
L:1/8
K:G
gf|\
"Em"eBBA B2ed|"D"BdAd BAGF|"Em"EDB,D "G"G2FG|"Em"EDB,E "D"DA,~A,2|\
"Em"B,EED E2DE|
"G"GEFD "D"EFGA|"G"Bded Bdgb|"D"afdf "Em"e2:|\
|:gf|\
"Em"eB~B2 gB~B2|"D"defg afdf|
"G"g2bg "D"fgaf|"Am"egfd "Em"edBA|\
"D"afdf "Bm"edB^c|"D"dBAF DFAF|"Am"EAcA "G"Bdgb|"D"afdf "Em"e2:|
